X: 18003
T: Hughie Travers'
R: reel
M: 4/4
K: Adorian
|:A2dA eAdA|~A2BG AGEG|A2dA eAdf|gedB GBdB|
A2dA eAdA|~A2BG AGEG|cBcA ~B3c|dBAG EFGA:|
|:(3B^cd ef {a}gedB|GBAF GED2|(3B^cd ef ~g3e|~a3f gfed|
(3B^cd ed gedB|GBAF GED2|c3A ~B3c|1 dBAG EFGA:|2 dBAG EFGB||
"variations"
|:~A3d eAdA|~A2BG AGEG|A2dA eAde|gfga gedB|
A2dA eAdA|AcBG AGEG|c3A BABc|dBAG EFGA:|
|:(3B^cd ed gedB|GAAF GED2|(3B^cd ed ~g3b|a2fa gfed|
(3B^cd ed gedB|GBAF GED2|c2Ac BABc|1 dBAG EFGA:|2 dBAG EFGB||

